src/assets/images-n/dashboard/configure-grey.svg

<svg width="16" height="16" viewBox="0 0 16 16" fill="none" xmlns="http://www.w3.org/2000/svg">
<path d="M0.811862 11.9993C0.453088 11.4005 0.183798 10.7755 0 10.1388C0.807164 9.74186 1.35989 8.93311 1.35989 7.99999C1.35989 7.06759 0.807994 6.25932 0.00182594 5.86212C0.37261 4.57361 1.07673 3.37362 2.07787 2.39278C2.83813 2.86802 3.84132 2.92495 4.67995 2.45836C5.51857 1.99177 5.969 1.12606 5.92205 0.25396C7.3041 -0.0911341 8.73455 -0.0787842 10.0778 0.256024C10.0317 1.12743 10.4821 1.99213 11.32 2.45836C12.1587 2.92494 13.1618 2.86802 13.9221 2.39283C14.4024 2.86458 14.8293 3.40181 15.1882 4.00067C15.5469 4.59952 15.8162 5.2245 16 5.86121C15.1928 6.2581 14.6401 7.06687 14.6401 7.99999C14.6401 8.93247 15.192 9.74066 15.9982 10.1379C15.6274 11.4264 14.9233 12.6263 13.9221 13.6072C13.1618 13.132 12.1587 13.0751 11.32 13.5416C10.4814 14.0082 10.031 14.874 10.0779 15.7461C8.69595 16.0911 7.26551 16.0788 5.92215 15.744C5.96829 14.8725 5.5179 14.0079 4.67995 13.5416C3.84135 13.0751 2.8382 13.1319 2.07795 13.6071C1.59765 13.1354 1.17064 12.5982 0.811862 11.9993ZM5.50996 12.1563C6.41582 12.6602 7.06639 13.4571 7.37798 14.3715C7.79157 14.4094 8.20791 14.41 8.62159 14.3728C8.93301 13.4579 9.58374 12.6605 10.49 12.1563C11.3963 11.6519 12.4383 11.5076 13.4162 11.7051C13.6565 11.3785 13.8641 11.0307 14.0368 10.6666C13.3709 9.94934 12.9801 9.00798 12.9801 7.99999C12.9801 6.992 13.3709 6.05072 14.0368 5.33348C13.9504 5.15271 13.855 4.97491 13.7505 4.80053C13.646 4.62615 13.5339 4.45761 13.4147 4.29519C12.4372 4.49223 11.3959 4.34775 10.49 3.84377C9.58415 3.33977 8.93367 2.54289 8.622 1.62854C8.20849 1.59062 7.79207 1.59007 7.37847 1.62723C7.06697 2.54211 6.41624 3.33952 5.50996 3.84377C4.60365 4.34802 3.56169 4.49237 2.58379 4.29488C2.34356 4.62152 2.13588 4.96927 1.96318 5.33337C2.62905 6.05065 3.01992 6.992 3.01992 7.99999C3.01992 9.00798 2.62907 9.94926 1.96318 10.6665C2.04959 10.8473 2.14501 11.0251 2.2495 11.1995C2.35397 11.3738 2.46603 11.5424 2.58532 11.7048C3.56279 11.5078 4.60413 11.6523 5.50996 12.1563ZM7.99999 10.3996C6.62482 10.3996 5.50996 9.32529 5.50996 7.99999C5.50996 6.67477 6.62482 5.6004 7.99999 5.6004C9.37524 5.6004 10.49 6.67477 10.49 7.99999C10.49 9.32529 9.37524 10.3996 7.99999 10.3996ZM7.99999 8.79986C8.4584 8.79986 8.83 8.44176 8.83 7.99999C8.83 7.55822 8.4584 7.20012 7.99999 7.20012C7.54157 7.20012 7.16997 7.55822 7.16997 7.99999C7.16997 8.44176 7.54157 8.79986 7.99999 8.79986Z" fill="#222222"/>
</svg>

<?xml version="1.0" encoding="UTF-8"?>
<svg id="Layer_1" data-name="Layer 1" xmlns="http://www.w3.org/2000/svg" viewBox="0 0 16 16">
  <defs>
    <style>
      .cls-1 {
        fill: #2c4469;
      }
    </style>
  </defs>
  <path class="cls-1" d="M.81,12c-.36-.6-.63-1.22-.81-1.86,.81-.4,1.36-1.21,1.36-2.14S.81,6.26,0,5.86c.37-1.29,1.07-2.49,2.08-3.47,.76,.48,1.76,.53,2.6,.07,.84-.47,1.29-1.33,1.24-2.2,1.38-.35,2.81-.33,4.16,0-.05,.87,.4,1.74,1.24,2.2,.84,.47,1.84,.41,2.6-.07,.48,.47,.91,1.01,1.27,1.61,.36,.6,.63,1.22,.81,1.86-.81,.4-1.36,1.21-1.36,2.14s.55,1.74,1.36,2.14c-.37,1.29-1.07,2.49-2.08,3.47-.76-.48-1.76-.53-2.6-.07-.84,.47-1.29,1.33-1.24,2.2-1.38,.35-2.81,.33-4.16,0,.05-.87-.4-1.74-1.24-2.2-.84-.47-1.84-.41-2.6,.07-.48-.47-.91-1.01-1.27-1.61Zm4.7,.16c.91,.5,1.56,1.3,1.87,2.22,.41,.04,.83,.04,1.24,0,.31-.91,.96-1.71,1.87-2.22,.91-.5,1.95-.65,2.93-.45,.24-.33,.45-.67,.62-1.04-.67-.72-1.06-1.66-1.06-2.67s.39-1.95,1.06-2.67c-.09-.18-.18-.36-.29-.53s-.22-.34-.34-.51c-.98,.2-2.02,.05-2.92-.45-.91-.5-1.56-1.3-1.87-2.22-.41-.04-.83-.04-1.24,0-.31,.91-.96,1.71-1.87,2.22-.91,.5-1.95,.65-2.93,.45-.24,.33-.45,.67-.62,1.04,.67,.72,1.06,1.66,1.06,2.67s-.39,1.95-1.06,2.67c.09,.18,.18,.36,.29,.53,.1,.17,.22,.34,.34,.51,.98-.2,2.02-.05,2.92,.45Zm2.49-1.76c-1.38,0-2.49-1.07-2.49-2.4s1.11-2.4,2.49-2.4,2.49,1.07,2.49,2.4-1.11,2.4-2.49,2.4Zm0-1.6c.46,0,.83-.36,.83-.8s-.37-.8-.83-.8-.83,.36-.83,.8,.37,.8,.83,.8Z"/>
</svg>
